X: 1637
T: The Jolly Raftsman
C:unknown composer
B: australian traditional tunes wiki
M:3/4
L:1/8
R: Air
Q: 1/4=100
K:D
V:1 
|:"D"A,6|D2F2B2|A6|d2F2B2|"A"A4G2|(3GBG E2B2|
A4-AB|A>G F>E D>B,|"D"A,4A,A,|D2F2B2|A6|d2F2B2|1
"A"A4G2|(3GBG E>G C>E|"D"D3DD2|D4B,2:|2"A"A4G2|(3GAG E>A C>E|"D"D3DD2|D4D>E||
"D"F3FF2|F2E2D2|A,2A3A|B2A4|"A7"(3GBG E3D|C2A3A|"D"B3AA2|B2A2G2|
"D"F3ED2|F3GA2|A2d2F2|B4A2|"G"(3GBG E3B|"A7"c2B2c2|"D"(3dfd A>d F>A|D4F>G||
"D"A2BA AA|AA BA AA|(3ABA (3GBG (3EGE|"A7"C2A3A|A2B2A2|A2B2A2|(3ABA (3GBG (3EGE|
"D"D3E FG|A2d2F2|B4A2|"A7"(3ABA E3B|c2B2c2|"D"(3dfd (3AdA (3FAF|D4z2||
% abcbook-tune_id 6342d53afa0c6ead527d3d9e


% abcbook-boost 0
% abcbook-tablature 
% abcbook-transpose 
% abcbook-lastupdated 1665324375348
% abcbook-soundfonts 
% abcbook-repeats 1
% NFF Book 2008

